img/icons/cash.svg

<svg width="33" height="34" viewBox="0 0 33 34" fill="none" xmlns="http://www.w3.org/2000/svg">
<path d="M18.8571 24.4405C18.8571 25.0743 18.6088 25.6822 18.1668 26.1304C17.7247 26.5786 17.1252 26.8304 16.5 26.8304C15.8748 26.8304 15.2753 26.5786 14.8332 26.1304C14.3912 25.6822 14.1429 25.0743 14.1429 24.4405C14.1429 23.8067 14.3912 23.1988 14.8332 22.7506C15.2753 22.3024 15.8748 22.0506 16.5 22.0506C17.1252 22.0506 17.7247 22.3024 18.1668 22.7506C18.6088 23.1988 18.8571 23.8067 18.8571 24.4405Z" fill="#8E95A0"/>
<path d="M20.1881 0L25.1853 7.09953L28.4806 5.96036L31.4883 14.881H33V34H0V14.881H0.801429V14.865L1.81971 14.8746L20.1881 0ZM12.4096 14.881H28.1679L26.5383 10.0486L24.1466 10.8246L12.4096 14.881ZM9.96129 12.3589L22.0786 8.17338L19.558 4.58857L9.96129 12.3589ZM6.28571 18.0675H3.14286V21.254C3.97639 21.254 4.77579 20.9183 5.36519 20.3207C5.95459 19.7231 6.28571 18.9126 6.28571 18.0675ZM22 24.4405C22 23.7082 21.8577 22.9831 21.5813 22.3065C21.3049 21.6299 20.8998 21.0152 20.3891 20.4974C19.8784 19.9796 19.272 19.5688 18.6048 19.2886C17.9375 19.0083 17.2223 18.8641 16.5 18.8641C15.7777 18.8641 15.0625 19.0083 14.3952 19.2886C13.728 19.5688 13.1216 19.9796 12.6109 20.4974C12.1002 21.0152 11.6951 21.6299 11.4187 22.3065C11.1423 22.9831 11 23.7082 11 24.4405C11 25.9194 11.5795 27.3378 12.6109 28.3836C13.6424 29.4294 15.0413 30.0169 16.5 30.0169C17.9587 30.0169 19.3576 29.4294 20.3891 28.3836C21.4205 27.3378 22 25.9194 22 24.4405ZM29.8571 30.8135V27.627C29.0236 27.627 28.2242 27.9627 27.6348 28.5603C27.0454 29.1579 26.7143 29.9684 26.7143 30.8135H29.8571ZM26.7143 18.0675C26.7143 18.9126 27.0454 19.7231 27.6348 20.3207C28.2242 20.9183 29.0236 21.254 29.8571 21.254V18.0675H26.7143ZM3.14286 30.8135H6.28571C6.28571 29.9684 5.95459 29.1579 5.36519 28.5603C4.77579 27.9627 3.97639 27.627 3.14286 27.627V30.8135Z" fill="#8E95A0"/>
</svg>

<svg width="33" height="34" fill="none" xmlns="http://www.w3.org/2000/svg"><path d="M18.857 24.44c0 .634-.248 1.242-.69 1.69-.442.449-1.042.7-1.667.7a2.341 2.341 0 01-1.667-.7 2.407 2.407 0 01-.69-1.69c0-.633.248-1.241.69-1.69a2.341 2.341 0 011.667-.7c.625 0 1.225.252 1.667.7a2.41 2.41 0 01.69 1.69z" fill="#8E95A0"/><path d="M20.188 0l4.997 7.1 3.296-1.14 3.007 8.921H33V34H0V14.881h.801v-.016l1.019.01L20.188 0zM12.41 14.881h15.758l-1.63-4.832-2.391.776L12.41 14.88zm-2.45-2.522l12.12-4.186-2.522-3.583-9.597 7.77zm-3.675 5.708H3.143v3.187c.833 0 1.633-.336 2.222-.933a3.21 3.21 0 00.92-2.254zM22 24.44c0-.732-.142-1.457-.419-2.134a5.582 5.582 0 00-1.192-1.809 5.496 5.496 0 00-1.784-1.208 5.434 5.434 0 00-4.21 0 5.496 5.496 0 00-1.784 1.208 5.582 5.582 0 00-1.192 1.81A5.644 5.644 0 0011 24.44c0 1.478.58 2.897 1.61 3.943a5.462 5.462 0 003.89 1.633 5.462 5.462 0 003.89-1.633A5.616 5.616 0 0022 24.44zm7.857 6.373v-3.186c-.833 0-1.633.336-2.222.933a3.21 3.21 0 00-.92 2.254h3.142zm-3.143-12.745c0 .845.331 1.655.92 2.253.59.597 1.39.933 2.223.933v-3.187h-3.143zM3.143 30.813h3.143a3.21 3.21 0 00-.92-2.253 3.121 3.121 0 00-2.223-.933v3.187z" fill="#8E95A0"/></svg>
